app/images/icons/heart.svg

<svg width="32" height="29" viewBox="0 0 32 29" fill="none" xmlns="http://www.w3.org/2000/svg">
<path d="M29.6653 2.77712C28.0869 0.98625 25.8974 0 23.5 0C20.1283 0 17.9936 2.01375 16.7966 3.70312C16.486 4.1415 16.2218 4.58106 16 4.99469C15.7782 4.58106 15.5141 4.1415 15.2034 3.70312C14.0064 2.01375 11.8717 0 8.5 0C6.10262 0 3.91306 0.986313 2.33469 2.77719C0.829188 4.48556 0 6.77356 0 9.21969C0 11.8824 1.03956 14.3589 3.27156 17.0134C5.26638 19.3859 8.13619 21.8314 11.4594 24.6632C12.6977 25.7185 13.9782 26.8098 15.3416 28.0026L15.3825 28.0384C15.5592 28.1932 15.7796 28.2705 16 28.2705C16.2204 28.2705 16.4408 28.1931 16.6175 28.0384L16.6584 28.0026C18.0217 26.8098 19.3023 25.7186 20.5408 24.6631C23.8638 21.8315 26.7336 19.386 28.7284 17.0134C30.9604 14.3589 32 11.8824 32 9.21969C32 6.77356 31.1708 4.48556 29.6653 2.77712ZM19.3246 23.2361C18.2571 24.1458 17.1584 25.0819 16 26.089C14.8416 25.0821 13.7429 24.1458 12.6753 23.236C6.17156 17.6939 1.875 14.0326 1.875 9.21969C1.875 7.23031 2.53781 5.38256 3.74137 4.01688C4.95875 2.63569 6.64869 1.875 8.5 1.875C11.0706 1.875 12.7323 3.45863 13.6735 4.78713C14.5178 5.97863 14.9584 7.17975 15.1086 7.64081C15.2343 8.02675 15.5941 8.28794 16 8.28794C16.4059 8.28794 16.7657 8.02675 16.8914 7.64081C17.0416 7.17975 17.4822 5.97863 18.3265 4.78706C19.2677 3.45863 20.9294 1.875 23.5 1.875C25.3513 1.875 27.0413 2.63569 28.2586 4.01688C29.4622 5.38256 30.125 7.23031 30.125 9.21969C30.125 14.0326 25.8284 17.6939 19.3246 23.2361Z" fill="white"/>
</svg>

<svg xmlns="http://www.w3.org/2000/svg" fill="none" viewBox="0 0 32 29"><path fill="#fff" d="M29.665 2.777C28.087.987 25.897 0 23.5 0c-3.372 0-5.506 2.014-6.703 3.703-.311.438-.575.878-.797 1.292a12.245 12.245 0 0 0-.797-1.292C14.006 2.013 11.872 0 8.5 0 6.103 0 3.913.986 2.335 2.777.829 4.486 0 6.774 0 9.22c0 2.662 1.04 5.139 3.272 7.793 1.994 2.373 4.864 4.818 8.187 7.65a385.452 385.452 0 0 1 3.883 3.34l.04.035a.935.935 0 0 0 1.236 0l.04-.035c1.364-1.193 2.644-2.284 3.883-3.34 3.323-2.832 6.193-5.277 8.187-7.65C30.96 14.36 32 11.883 32 9.22c0-2.446-.83-4.734-2.335-6.443zm-10.34 20.46c-1.068.909-2.167 1.845-3.325 2.852-1.158-1.007-2.257-1.943-3.325-2.853-6.503-5.542-10.8-9.203-10.8-14.016 0-1.99.663-3.837 1.866-5.203A6.258 6.258 0 0 1 8.5 1.875c2.57 0 4.232 1.584 5.174 2.912a11.113 11.113 0 0 1 1.435 2.854.937.937 0 0 0 1.782 0c.15-.461.591-1.662 1.436-2.854.94-1.328 2.602-2.912 5.173-2.912 1.851 0 3.541.76 4.759 2.142 1.203 1.366 1.866 3.213 1.866 5.203 0 4.813-4.297 8.474-10.8 14.016z"/></svg>
